!!!COM: Palestrina, Giovanni Perluigi da
!!!OPR: Missa Repleatur os meum laude
!!!OMD: Sanctus
!!!OTL: Hosanna
**kern	**kern	**kern	**kern	**kern
*Ibass	*Itenor	*Itenor	*Icalto	*Icant
!Bassus	!Tenor 2	!Tenor 1	!Altus	!Cantus
*clefF4	*clefGv2	*clefGv2	*clefG2	*clefG2
*k[]	*k[]	*k[]	*k[]	*k[]
*E:phr	*E:phr	*E:phr	*E:phr	*E:phr
*M4/2	*M4/2	*M4/2	*M4/2	*M4/2
=48	=48	=48	=48	=48
0r	0r	0r	1e	1r
.	.	.	1f	1a
=49	=49	=49	=49	=49
0r	0r	0r	1d	1b
.	.	.	2e	1g
.	.	.	2g	.
=50	=50	=50	=50	=50
0r	0r	0r	2.f	2a
.	.	.	.	2.cc
.	.	.	8e	.
.	.	.	8d	.
.	.	.	2c	.
.	.	.	.	4b
.	.	.	[2d	4a
.	.	.	.	4g
=51	=51	=51	=51	=51
1r	0r	0r	2d]	2f
.	.	.	2c	1a
1E	.	.	2B	.
.	.	.	2e	2g#
=52	=52	=52	=52	=52
1F	1A	0r	2d	2.a
.	.	.	2c	.
.	.	.	.	4g
1D	1B	.	1d	1f
=53	=53	=53	=53	=53
2E	1G	1B	1r	2e
2G	.	.	.	2d
2.F	2A	1c	2r	2.f
.	[2c	.	2A	.
8E	.	.	.	4g
8D	.	.	.	.
=54	=54	=54	=54	=54
2C	4c]	1A	2e	1a
.	4B	.	.	.
2D	2A	.	2f#	.
1GG	2.G	2B	1g	2.dd
.	.	[2d	.	.
.	4A	.	.	4cc
=55	=55	=55	=55	=55
1G	4B	4d]	1d	4b
.	4c	4c	.	4a
.	1d	2B	.	2g
2.F	.	2.A	2.f	2.a
.	[2c	.	.	.
4G	.	4B	8e	8g
.	.	.	8d	8f
=56	=56	=56	=56	=56
1A	2c]	4c	1c	2e
.	.	4d	.	.
.	4B	1e	.	1a
.	4A	.	.	.
1r	1B	.	1d	.
.	.	[2d	.	2g#
=57	=57	=57	=57	=57
1r	0A	2d]	1e	2.a
.	.	4c	.	.
.	.	4B	.	4g
2r	.	1c	1r	2e
2A	.	.	.	2f#
=58	=58	=58	=58	=58
2G	0r	0B	2r	0g
2E	.	.	2e	.
2G	.	.	2d	.
2G	.	.	2B	.
=59	=59	=59	=59	=59
1F	0r	0r	2c	2r
.	.	.	2d	2a
2E	.	.	2.e	2g
4C	.	.	.	2e
4D	.	.	4d	.
=60	=60	=60	=60	=60
4E	1r	0r	2c	2g
4F	.	.	.	.
2G	.	.	2B	2g
4D	1d	.	2A	1f
4E	.	.	.	.
4F	.	.	[2A	.
4G	.	.	.	.
=61	=61	=61	=61	=61
1A	2c	1r	4A]	2e
.	.	.	4B	.
.	2A	.	4c	2a
.	.	.	4d	.
1r	2c	1e	4e	2g
.	.	.	4f	.
.	2c	.	[2g	2e
=62	=62	=62	=62	=62
1G	1B	2d	2g]	2g
.	.	2B	2d	2g
2F	2A	2d	1f	[1a
2D	4F	2d	.	.
.	4G	.	.	.
=63	=63	=63	=63	=63
2F	4A	1c	2f	2a]
.	4B	.	.	.
4C	2c	.	2.e	2.g
4D	.	.	.	.
4E	4G	2B	.	.
4F	4A	.	8d	4f
.	.	.	8c	.
[2G	4B	4G	2B	[2d
.	4c	4A	.	.
=64	=64	=64	=64	=64
2G]	1d	4B	2G	4d]
.	.	4c	.	4e
2D	.	2d	1A	4f
.	.	.	.	4g
1F	1c	4A	.	1a
.	.	4B	.	.
.	.	4c	2F	.
.	.	4d	.	.
=65	=65	=65	=65	=65
1C	1c	1e	1G	2r
.	.	.	.	2cc
1G	1r	1d	2r	2b
.	.	.	2g	2g
=66	=66	=66	=66	=66
2r	1r	1d	2f	2a
2G	.	.	2d	2b-
2F	2r	1r	[1f	2a
2D	2d	.	.	4f
.	.	.	.	4g
=67	=67	=67	=67	=67
2F	2c	1r	2f]	4a
.	.	.	.	4b
2F	2A	.	2c	2.cc
2E	2c	2r	2.e	.
.	.	.	.	4b
2C	2c	2e	.	[2a
.	.	.	8d	.
.	.	.	8e	.
=68	=68	=68	=68	=68
2D	1B	2d	2f	2a]
2E	.	2B	2e	2g#
2F	1A	2d	1r	[1a
4D	.	2d	.	.
4E	.	.	.	.
=69	=69	=69	=69	=69
4F	0r	1c	0r	1a]
4G	.	.	.	.
1A	.	.	.	.
.	.	1B	.	2r
2G#	.	.	.	2b
=70	=70	=70	=70	=70
1A	2r	0r	1e	2cc
.	2c	.	.	1a
1r	2d	.	2f	.
.	2B	.	2d	2b
=71	=71	=71	=71	=71
0r	2c	2r	2e	4a
.	.	.	.	4g
.	2B	2d	2d	1g
.	1A	2e	1c	.
.	.	2c	.	2f#
=72	=72	=72	=72	=72
2r	1G	2d	2B	1g
2C	.	2c	2e	.
2D	1r	1B	2f	2r
2E	.	.	2e	2g
=73	=73	=73	=73	=73
2F	1r	1A	2c	2a
2D	.	.	2d	2f
1C	1c	1r	2.e	2.g
.	.	.	4f	4a
=74	=74	=74	=74	=74
1GG	1d	1r	1.g	4b
.	.	.	.	4cc
.	.	.	.	1dd
1G	1B	1d	.	.
.	.	.	2d	[2g
=75	=75	=75	=75	=75
1C	1c	1e	1g	2g]
.	.	.	.	2.cc
1F	1A	1c	[1f	.
.	.	.	.	4b
.	.	.	.	[2a
=76	=76	=76	=76	=76
1D	0B	1d	1f]	2a]
.	.	.	.	4g
.	.	.	.	4f
1E	.	1B	[1e	1g
=77	=77	=77	=77	=77
0AA	0A	0c	0e]	0a
=78	=78	=78	=78	=78
0E	0G#	0B	0e	0b
==	==	==	==	==
*-	*-	*-	*-	*-
!!!CDT: 1525/^1526/-1594/2/2
!!!OCY: Italia
!!!AGN: Mass (Canonic)
!!!AST: renaissance, vocal
!!!ASW: Motet 1538 (Jacquet)
!!!PWK: Masses, Book 3
!!!RNB: Cadence finals: A,G,C
!!!YOR: Le Opere Complete, v. 6, p. 136
!!!YOO: Rome, Italy: Fratelli Scalera
!!!END: 1992//
!!!EED: John Miller
!!!YEC: Copyright 2000, John Miller
!!!YEN: United States of America
!!!YEM: Rights to all derivative electronic formats reserved.
!!!YEM: Refer to licensing agreement for further details.
!!!YEM: This file must be accompanied by the licensing agreement.
!!!YEM: A copy of the licensing agreement may be found at http://www.music-cog.ohio-state.edu/HumdrumDatabases/Palestrina/license.txt
!!!EMD: converted to Humdrum by Bret Aarden
